-----BEGIN PGP PUBLIC KEY BLOCK-----

mQINBFzeVs8BEAC6x2UWFcVgjoHHpfJepxtzduLYt8jX9viX57uc1WwNK/vD24Sy
cvzt6CEHVOD4FILLSQ14LPid4aa5YyLl4DPQs3qva+ZWCSdBF8VEGZ3/WVJ7TkiI
yQTnesd+vw04WiBgtmVqcgbO6W46WRDWEZqaIh+8bthYrbUVgAojsvcNicDooXU4
IvuHiK1LrCyZPyn+pUiKZ+UnnRuh/klmNVjBdqfoTg0Y0nbQwmroUrFIn0X9gxpm
mj1d+3gyZWE0+c4axrNH5OO729Ck/Lx+hkZMHsFuPFl+P2kR7ZHRUykn7CMdPUGd
UmK1/71hDwmN/TMBqgzyLCv+AeEBavhGxPLnFC2mvSpBd0XtD49jbn2RfWGl9m3I
g7S0MgTAKZTsGj2V0xfjMw5lcC2iIknv+tb3MZB1Tt8u1rCWHKgh3EpGFsBK+AGW
jFTFnvvaXOQUrtVKYlU0joxhTM0rTOnJu78meAfoHSlRgNXtu5H37AErs2zGCIqG
Qt1nmONlmJRF6xllhu5lui//zN+xKiNQMlxerEXjBXcuUyw4JQloECTEgQ8Fjz+5
YlvFQEuXUQ9t/Cp0K6ZOBNMT7vNpurp3uuT1INF2gbCSlCAErECsXTvAZ5cpe7Q4
zJelg1AiOdd/sMVSqH3jqKYuWselAWj/Xf07+g9IkKEKmiuFCQpyWzL3BwARAQAB
tBtXZXJuZXIgTGVtYmVyZyA8d2xAZ251Lm9yZz6JAk4EEwEKADgCGwMCHgECF4AW
IQTjBnRweFZAn/GUgBC+bDqsY62OPwUCYnpynwULCQgHAwUVCgkICwUWAgMBAAAK
CRC+bDqsY62OP6TJD/4+HFbTzMMzmmiE+85D7Q1lNA34EuH9IL2YwMoh+tgQzOsG
CzDtTsc7QTZZ/6JQ3UvRM6+8MrlrnXtLpMntP7doAmZ4bWxmR0d+aXhhxUTQXRCj
SbYLBHbQD3LvX1Lnh/+cVb/sZZUaNBqF5Uke0r3Ug6x0muehAn9DOxEY/povmvCF
oflaGiukbUoHz7y+BSKvLBDpMEf25cIxGnMPu4qJRbWmjVavD/nVNBl8FOR7GyWY
Ttnx/ylgg2+6kP9SwLtINa3UWwro7kW9mSlNYUTjEP4RofZQ4ZIdHJV3PkDjUnDa
Vt0ULk2h4C4RqlbKiY8Iul4nNt3ePQkdVICHMlGz2BbIdGderxev8wY4gwcfD0oS
s7ncgsvjQWj3fZVHLjfyHtNAFDR3kJYmq3Nr3er8LQic0jw22SD3o3Kd3XNmESHC
OUnX3Hwct+SFDK55YJjn0LQsemXnEEgZF4Mtem3DR1TFKNvlHX2Oo0tGcRZjEBYi
0/lS+QuUP4s2c7eaULpw/v4NCe7ulvuSHZGy+3GLJwJ0wDRZj2G+Yi1GdPqUwQFS
9k+zW2DFt5WbzS+sBb6bXSeJfCLZwdS6veKryjCgkfUUiWMVxJPUHm3VzjV+SRoU
z3Ko8Y0nl5lYYyZGWw93/sVeUKxO5K62IDPSVOnPVO+yuuKgE2wqaL2dcBqyuIkC
OQQTAQIAIwUCXN5WzwIbAwcLCQgHAwIBBhUIAgkKCwQWAgMBAh4BAheAAAoJEL5s
OqxjrY4/v30P/02Q9sfpjQOSfRECzwbnddu1DfCagHRa6TL3VfpRRRvHR0BFsD4k
w1JZotLjv1rXRT8hRWUyBxviARLe6tHPRBtjC9CnaBW5+wyvqUBf+7+RsKHaQD0i
j3SzBKGrZDj2CuSxVg+/IKocsJmo5VwFbGVUs63BKRpOGG1znK66Ft83Ro/aLcBB
y0j5E3Q4t+RPjCA3y7E4Ay++EofXQCRhskCM0ECa8f+ad8ln9kYQCZ+vZv7xY593
X9t0UjWy/5/aSCYHR/qLRvfoOgusT2eAkOyLleQat89H69z1xHrwHCZnZqVhy9vB
luQK4xH3lCY6hu4IEMFgpJcYNJJLgl4zW/QRIraIp5TFUd0UIyVdiQhHPNmIdgQX
R5xTf44LOWsZYYz5XVFZLFBNSwUFTiD2AKxLjFtJcwey5yandFlE8nQxVdWxJwAI
ohuVyWWP/A1dEi4eO9979NOEJIADyny3LIMWKjrNQMzPWsBKIG9WtK9hatefy9MD
e4K4DnxClAxN0mh9FOoVnqVNV6eIUlFLXPwEilpKwsvW4+cq75Ldg/F0Q8BWT6i3
/6dIidMm1ONT1igHYxtwO+aoYzlTMomS6LUUYddMUEg/5cR1D8oXRDsylYie/3nb
mc/S3oOnW8KpB/ImsrxdR8ZoJKDCyi+4uaV5V63TDCaLNC1gTXsuSnCbiQIzBBAB
CAAdFiEEGhUsk6PgrfVnfZAg6eD1ARCVXUsFAmbvS4kACgkQ6eD1ARCVXUtPNg//
R/jabbXtpV8meUAgda7suyCjdtf/hdXaziszBc+lSIXNIx3fgyRUSJcLVIvOhzbn
IwEg85/0bqg5qPaNd6QKBE2sJxBdxwCYCtwOWR9/Xbr4fQ0gXKL8Ems48X5qXAfy
tBRehpSuWm0haFiqepxlAdMATbal/FAawuYPD5IVdqq0/C3fGM/iXQL3440tZPUC
DNdbB+wdFpKAs4XlXeMK2nySfLAoqN7Fb6Hhm9DgBV24nkSaqlXJTBYFhRBQla/6
pUAbvLQbtkdLoSioqjdRm4XFAn0WLrva/RleIPAJvG3Lua7TdSul3vHYh7vfNsqt
FHYIG2niExN20amxBXJ0dpBrpB2yLHL5Pt74x5phWExXnw3au86H4EHgdgNyKz47
tzpzcKVFYwbMdhjf3EFWf4klWjywDdJ+xHY+XrRREX8u33yfRGfFhNIlIk4+wKph
7PY0DsgPMYRcYgKDTQirid5RJ3ZGjmtrm2+KHyJwIT8f6/fBXq4xF3gWAZ+ofl5/
1wQsHTO0sCI145InNGktBQCqCN0/0pEWZD8v4CK4gB8nSKjKzp7zOjMOJPivHF1N
ZOeYqY9xSNf3lyPRYJNv81nmiBXVhA5T4MW3t+PXgrSTclXSjZS2FcTNiZgAYqm2
BEpl3DVDMBvZ6KDr6oFCiDPCQvfxlakraCttrEj7IkG5Ag0EXN5WzwEQALsva9iX
Jh9WDO24ipd+y43jCUUWl5XqAChH0U74VDyvsaOUV+GPPMlES6yXert75WBrQVCo
hO2Y9RTWRvEInK1OWaYaQyd2yj1rgbrKraqBKyn9x5nRClLq1RczCxxWhze7qNPm
w0P3IfP2v9m1wssoOP1thYGLYXIwIv/YrUkP3ifk4LccTMa9BxzoDQsiAWTKZmh7
cp2NBjePItUcPTJgebfudwz9+KMPjWfI87l/HhHqyxxh2Ql6QTV8Jzhqs0ksWTyx
+qQSipWyCAz3Z0arcY6u33K3/ynyIUl7Tb+4q6loZKWQykHrOinecg3Fc8k5DLxi
U+EVY3AZnAfiEjlcA7RWqpP8Ft8AGt4BiTkr0NZVYW1Bu3leGo0l0pNSCaaPbWfr
GSn5m+snTU63G/m3omocx9HMlyCIoAxamLR7O8/vwwcIlCxXNjYuR2BMPJiOha2F
rvc6ZqLs7CUVvwRokBP4S+nAhpYFxEVmYaO8IdyDDhdAj9u4FOvmtIffHVVCmhHU
gQ/WEMCZJsf+/2z79lLChUXZoJVnEnro3Zo0a2oda+DpItA8f5xDI1jkdbpiSFdk
3aoeUaBn0aAx7BAaDq7w3bg5nuaSbg/fePVzjil9xDEz/GyTOOLJYO2MwcRdmxJr
EGiLRugpLgETRrh2aju00of6GSwgYP2pd1EVABEBAAGJAjYEGAEKACACGwwWIQTj
BnRweFZAn/GUgBC+bDqsY62OPwUCYnpylgAKCRC+bDqsY62OPzE1EACmSwydxH+3
1kry0O5cA0CnvB2iCUgpKCRVX5T4I6xr4UoBGsl9doAG6Jdv166pD3aS6knGNwbO
gQVdx8gQMx+KLVICDpADn0Bp6W6QQ760CYHtrdWbx5PS+Rk1FAe+4lkgwoRHo5Gy
7vETlzG7d/2Itl75vZoyBMnHnTPx0Ai/AgTDmnnaosutVbO148P2b4srgePh+27T
jBIa0bJKn021EA+7MONFQwf1HxvI0CSNa0dbtl9WvUdV0El5f5YrdOJkhC4DC/3u
ATz2Ztckd6BaHvYjywkbu9oO6h1bGmeDxxYUCCPJBn2y+hAlSquZoLB9/rHbjQPs
MdxBRCGwiydk6PUH0KVSfnd8ugE7HhDFkoVpPhAFU/QsH/micasq8oswYnf1i0xc
ZbwKw+16r24Gdp1xQ2mNoC5JsPo0mra+dmLP19aLFDTTP1x55bb+if+Z/A0TUeVn
+dD4nQAdLZJg31Te19NvtToN/ctYRa4pvVK2KnWONb9/ODw1f+WGV+zsEzorb4Ti
Y0s+7LQB48dzJDyl48K0cuslb6eNIZsQoI7gpJdsBiAA45gp5rF6cmiDkYxV7Wr/
fxUL/QG3jgWQd3t13DaqODqSwOiwgcnYXuoDKchcVPQw1cs2FV1l8nQT7Yt6JZBD
nKsR+s2WgyzrNTrjq+rSK5MRor/iJ1WKbw==
=fxeD
-----END PGP PUBLIC KEY BLOCK-----
